actions/16/go-next.svg

<svg xmlns="http://www.w3.org/2000/svg" viewBox="0 0 16 16">
  <defs id="defs3051">
    <style type="text/css" id="current-color-scheme">
      .ColorScheme-Text {
        color:#808080;
      }
      </style>
  </defs>
 <path style="fill:currentColor;fill-opacity:1;stroke:none" 
     d="m12 8l-6.251-6-.749.719 4.298 4.125 1.237 1.156-1.237 1.156-4.298 4.125.749.719 4.298-4.125z"
     class="ColorScheme-Text"
     />
</svg>

<svg xmlns="http://www.w3.org/2000/svg" version="1.1" viewBox="0 0 16 16">
 <defs>
  <style id="current-color-scheme" type="text/css">
   .ColorScheme-Text { color:#808080; }
  </style>
 </defs>
 <path class="ColorScheme-Text" d="M 12,8 5.749,2 5,2.719 9.298,6.844 10.535,8 9.298,9.156 5,13.281 5.749,14 10.047,9.875 Z" style="color:#808080;fill:currentColor"/>
</svg>
